svgs/sharp-solid/slider.svg

<svg xmlns="http://www.w3.org/2000/svg" viewBox="0 0 512 512"><!--! Font Awesome Pro 6.6.0 by @fontawesome - https://fontawesome.com License - https://fontawesome.com/license (Commercial License) Copyright 2024 Fonticons, Inc. --><path d="M352 160l0 192-32 0 0-192 32 0zM320 96l-64 0 0 64 0 192 0 64 64 0 32 0 64 0 0-64 0-64 64 0 32 0 0-64-32 0-64 0 0-64 0-64-64 0-32 0zM0 288l32 0 192 0 0-64L32 224 0 224l0 64z"/></svg>

<svg xmlns="http://www.w3.org/2000/svg" viewBox="0 0 512 512"><!--! Font Awesome Pro 6.4.2 by @fontawesome - https://fontawesome.com License - https://fontawesome.com/license (Commercial License) Copyright 2023 Fonticons, Inc. --><path d="M352 160V352H320V160h32zM320 96H256v64V352v64h64 32 64V352 288h64 32V224H480 416V160 96H352 320zM0 288H32 224V224H32 0v64z"/></svg>
